icons/defold-dark.svg

<svg width="256" height="256" viewBox="0 0 256 256" fill="none" xmlns="http://www.w3.org/2000/svg">
<path d="M196 0H60C26.8629 0 0 26.8629 0 60V196C0 229.137 26.8629 256 60 256H196C229.137 256 256 229.137 256 196V60C256 26.8629 229.137 0 196 0Z" fill="#282828"/>
<g clip-path="url(#clip0_120_2391)">
<path d="M158.333 110.936L128 128.421L97.6669 110.936L128 93.4521L158.333 110.936ZM188.667 128.421V163.389L219 145.905L188.667 128.421ZM37.0308 145.905L67.3638 163.389V128.421L37.0308 145.905ZM128 198.357L158.333 215.841L188.666 198.357L158.333 180.873L188.666 163.388L158.333 145.905L128 163.389L97.6669 145.905L67.3338 163.389L97.6669 180.873L67.3338 198.358L97.6669 215.842L128 198.357Z" fill="#15244A"/>
<path d="M188.635 163.389V198.357L158.302 180.873L188.635 163.389ZM128 163.389V128.42L97.667 110.936V145.905L128 163.389ZM97.667 41V75.9685L128 58.4842L97.667 41ZM158.333 145.905L188.666 163.389V128.42L219 145.905V110.936L188.667 93.4519V58.4835L158.333 41V75.9685L128 58.4842V93.4527L158.333 110.937V145.905Z" fill="url(#paint0_linear_120_2391)"/>
<path d="M128 163.389V128.42L158.333 110.936V145.905L128 163.389ZM128 58.4842L158.333 75.9685V41L128 58.4842ZM97.6669 110.936L128 93.4519V58.4842L97.6669 75.9677V41L67.3338 58.4842V93.4527L37 110.936V145.905L67.3331 128.42V163.389L97.6662 145.905L97.6669 110.936ZM67.3647 163.389V198.357L97.6978 180.873L67.3647 163.389Z" fill="url(#paint1_linear_120_2391)"/>
</g>
<defs>
<linearGradient id="paint0_linear_120_2391" x1="81.6936" y1="67.0468" x2="204.719" y2="137.775" gradientUnits="userSpaceOnUse">
<stop stop-color="#1C68EC"/>
<stop offset="1" stop-color="#00E9DF"/>
</linearGradient>
<linearGradient id="paint1_linear_120_2391" x1="41.4182" y1="78.5479" x2="157.429" y2="145.525" gradientUnits="userSpaceOnUse">
<stop stop-color="#FF3C2A"/>
<stop offset="1" stop-color="#FFD215"/>
</linearGradient>
<clipPath id="clip0_120_2391">
<rect width="182" height="175" fill="white" transform="translate(37 41)"/>
</clipPath>
</defs>
</svg>

<svg xmlns="http://www.w3.org/2000/svg" width="256" height="256" fill="none"><path fill="#282828" d="M196 0H60C26.863 0 0 26.863 0 60v136c0 33.137 26.863 60 60 60h136c33.137 0 60-26.863 60-60V60c0-33.137-26.863-60-60-60"/><g clip-path="url(#clip0_120_2391)"><path fill="#15244A" d="M158.333 110.936 128 128.421l-30.333-17.485L128 93.452zm30.334 17.485v34.968L219 145.905zM37.031 145.905l30.333 17.484v-34.968zM128 198.357l30.333 17.484 30.333-17.484-30.333-17.484 30.333-17.485-30.333-17.483L128 163.389l-30.333-17.484-30.333 17.484 30.333 17.484-30.333 17.485 30.333 17.484z"/><path fill="url(#paint0_linear_120_2391)" d="M188.635 163.389v34.968l-30.333-17.484zm-60.635 0V128.42l-30.333-17.484v34.969zM97.667 41v34.969L128 58.484zm60.666 104.905 30.333 17.484V128.42L219 145.905v-34.969l-30.333-17.484V58.484L158.333 41v34.969L128 58.484v34.969l30.333 17.484z"/><path fill="url(#paint1_linear_120_2391)" d="M128 163.389V128.42l30.333-17.484v34.969zm0-104.905 30.333 17.485V41zm-30.333 52.452L128 93.452V58.484L97.667 75.968V41L67.334 58.484v34.969L37 110.936v34.969l30.333-17.485v34.969l30.333-17.484zm-30.302 52.453v34.968l30.333-17.484z"/></g><defs><linearGradient id="paint0_linear_120_2391" x1="81.694" x2="204.719" y1="67.047" y2="137.775" gradientUnits="userSpaceOnUse"><stop stop-color="#1C68EC"/><stop offset="1" stop-color="#00E9DF"/></linearGradient><linearGradient id="paint1_linear_120_2391" x1="41.418" x2="157.429" y1="78.548" y2="145.525" gradientUnits="userSpaceOnUse"><stop stop-color="#FF3C2A"/><stop offset="1" stop-color="#FFD215"/></linearGradient><clipPath id="clip0_120_2391"><path fill="#fff" d="M37 41h182v175H37z"/></clipPath></defs></svg>
